src/assets/2009.svg

<svg width="2650" height="2428" fill="none" xmlns="http://www.w3.org/2000/svg">
  <g filter="url(#filter0_d)">
    <path d="M1728.58 639.281c-40.85-41.235 77.57-129.832-61.63-169.859C1481.24 416.016 449.533.39 449.533.39L25.875 639.28S605.25 1284.94 650.31 1334.99c45.061 50.04 272.367 234.8 405.21 196.33 132.84-38.46 112.89-31.77 120.04-17.47 7.15 14.3-93.66 125.42-16.75 207.15 76.91 81.74 217.84 88.19 318.05 134.34 100.22 46.16-114.95 424.97 287.61 490.03 402.56 65.06 352.48-281.12 381.23-332.09 28.74-50.96 115.82 26.93 160.88 0 45.05-26.92 39.02-130.12 91.27-167.99 52.25-37.87 68.6-19.9 138.67-43.69s101.86-177.36 82.15-213.2c-19.72-35.85-75.07-96.56-85.42-116.95-10.17-20.03-14.83-32.56-26.62-64.29l-.65-1.74c-12.26-33.01 15.2-65.63 43.17-124.29 27.96-58.66 79.25-126.77 5.45-192.75s-176.25 21.33-220.36-44.18c-44.11-65.511 6.69-111.669-91.33-153.423-98.02-41.754-285.66 89.929-325.66 59.03-40-30.9 19.06-105.622-8.66-145.434-27.71-39.812-139.16-123.857-180.01-165.092z" fill="#fff"/>
  </g>
  <defs>
    <filter id="filter0_d" x=".875" y=".39" width="2648.55" height="2427.09" filterUnits="userSpaceOnUse" color-interpolation-filters="sRGB">
      <feFlood flood-opacity="0" result="BackgroundImageFix"/>
      <feColorMatrix in="SourceAlpha" values="0 0 0 0 0 0 0 0 0 0 0 0 0 0 0 0 0 0 127 0"/>
      <feOffset dy="49"/>
      <feGaussianBlur stdDeviation="12.5"/>
      <feColorMatrix values="0 0 0 0 0 0 0 0 0 0 0 0 0 0 0 0 0 0 0.25 0"/>
      <feBlend in2="BackgroundImageFix" result="effect1_dropShadow"/>
      <feBlend in="SourceGraphic" in2="effect1_dropShadow" result="shape"/>
    </filter>
  </defs>
</svg>

<svg width="2650" height="2428" viewBox="0 0 2650 2428" fill="none" xmlns="http://www.w3.org/2000/svg">
<g filter="url(#filter0_d)">
<path d="M1728.58 639.281C1687.73 598.046 1806.15 509.449 1666.95 469.422C1481.24 416.016 449.533 0.389648 449.533 0.389648L25.875 639.281C25.875 639.281 605.25 1284.94 650.31 1334.99C695.371 1385.03 922.677 1569.79 1055.52 1531.32C1188.36 1492.86 1168.41 1499.55 1175.56 1513.85C1182.71 1528.15 1081.9 1639.27 1158.81 1721C1235.72 1802.74 1376.65 1809.19 1476.86 1855.34C1577.08 1901.5 1361.91 2280.31 1764.47 2345.37C2167.03 2410.43 2116.95 2064.25 2145.7 2013.28C2174.44 1962.32 2261.52 2040.21 2306.58 2013.28C2351.63 1986.36 2345.6 1883.16 2397.85 1845.29C2450.1 1807.42 2466.45 1825.39 2536.52 1801.6C2606.59 1777.81 2638.38 1624.24 2618.67 1588.4C2598.95 1552.55 2543.6 1491.84 2533.25 1471.45C2523.08 1451.42 2518.42 1438.89 2506.63 1407.16L2505.98 1405.42C2493.72 1372.41 2521.18 1339.79 2549.15 1281.13C2577.11 1222.47 2628.4 1154.36 2554.6 1088.38C2480.8 1022.4 2378.35 1109.71 2334.24 1044.2C2290.13 978.689 2340.93 932.531 2242.91 890.777C2144.89 849.023 1957.25 980.706 1917.25 949.807C1877.25 918.907 1936.31 844.185 1908.59 804.373C1880.88 764.561 1769.43 680.516 1728.58 639.281Z" fill="white"/>
</g>
<defs>
<filter id="filter0_d" x="0.875" y="0.389648" width="2648.55" height="2427.09" filterUnits="userSpaceOnUse" color-interpolation-filters="sRGB">
<feFlood flood-opacity="0" result="BackgroundImageFix"/>
<feColorMatrix in="SourceAlpha" type="matrix" values="0 0 0 0 0 0 0 0 0 0 0 0 0 0 0 0 0 0 127 0"/>
<feOffset dy="49"/>
<feGaussianBlur stdDeviation="12.5"/>
<feColorMatrix type="matrix" values="0 0 0 0 0 0 0 0 0 0 0 0 0 0 0 0 0 0 0.25 0"/>
<feBlend mode="normal" in2="BackgroundImageFix" result="effect1_dropShadow"/>
<feBlend mode="normal" in="SourceGraphic" in2="effect1_dropShadow" result="shape"/>
</filter>
</defs>
</svg>
